src/lib/packages/icons/src/assets/filled/poll-vertical-square.svg

<svg xmlns="http://www.w3.org/2000/svg" width="24" height="24" fill="none"><path fill="currentColor" d="M17.625 3H6.375C4.125 3 3 4.125 3 6.375v11.25C3 19.875 4.125 21 6.375 21h11.25C19.875 21 21 19.875 21 17.625V6.375C21 4.125 19.875 3 17.625 3ZM8.75 16a.75.75 0 0 1-1.5 0v-5a.75.75 0 0 1 1.5 0v5Zm4 0a.75.75 0 0 1-1.5 0V8a.75.75 0 0 1 1.5 0v8Zm4 0a.75.75 0 0 1-1.5 0v-3a.75.75 0 0 1 1.5 0v3Z"/></svg>

<svg width="24" height="24" viewBox="0 0 24 24" fill="none" xmlns="http://www.w3.org/2000/svg">
<path d="M17.625 3H6.375C4.125 3 3 4.125 3 6.375V17.625C3 19.875 4.125 21 6.375 21H17.625C19.875 21 21 19.875 21 17.625V6.375C21 4.125 19.875 3 17.625 3ZM8.75 16C8.75 16.414 8.414 16.75 8 16.75C7.586 16.75 7.25 16.414 7.25 16V11C7.25 10.586 7.586 10.25 8 10.25C8.414 10.25 8.75 10.586 8.75 11V16ZM12.75 16C12.75 16.414 12.414 16.75 12 16.75C11.586 16.75 11.25 16.414 11.25 16V8C11.25 7.586 11.586 7.25 12 7.25C12.414 7.25 12.75 7.586 12.75 8V16ZM16.75 16C16.75 16.414 16.414 16.75 16 16.75C15.586 16.75 15.25 16.414 15.25 16V13C15.25 12.586 15.586 12.25 16 12.25C16.414 12.25 16.75 12.586 16.75 13V16Z" fill="currentColor"/>
</svg>
